svgs/sharp-light/truck-bolt.svg

<svg xmlns="http://www.w3.org/2000/svg" viewBox="0 0 640 512"><!--! Font Awesome Pro 6.6.0 by @fontawesome - https://fontawesome.com License - https://fontawesome.com/license (Commercial License) Copyright 2024 Fonticons, Inc. --><path d="M384 32l0 352-133.5 0c-13.2-37.3-48.7-64-90.5-64s-77.4 26.7-90.5 64L32 384 32 32l352 0zM32 416l32 0c0 53 43 96 96 96s96-43 96-96l128 0c0 53 43 96 96 96s96-43 96-96l32 0 16 0 16 0 0-32-16 0-16 0 0-160 0-5.9-3.9-4.5-96-112L503.4 96 496 96l-80 0 0-64 0-32L384 0 32 0 0 0 0 32 0 384l0 32 32 0zM416 128l72.6 0 82.3 96L416 224l0-96zm0 216.4l0-88.4 160 0 0 128-5.5 0c-13.2-37.3-48.7-64-90.5-64c-24.6 0-47 9.2-64 24.4zM160 352a64 64 0 1 1 0 128 64 64 0 1 1 0-128zm256 64a64 64 0 1 1 128 0 64 64 0 1 1 -128 0zM251.3 107.3L262.6 96 240 73.4 228.7 84.7l-80 80L121.4 192l38.6 0 68 0-52.7 52.7L164 256l22.6 22.6L198 267.3l80-80L305.3 160l-38.6 0-68 0 52.7-52.7z"/></svg>

<svg xmlns="http://www.w3.org/2000/svg" viewBox="0 0 640 512"><!--! Font Awesome Pro 6.4.2 by @fontawesome - https://fontawesome.com License - https://fontawesome.com/license (Commercial License) Copyright 2023 Fonticons, Inc. --><path d="M384 32V384H250.5c-13.2-37.3-48.7-64-90.5-64s-77.4 26.7-90.5 64H32V32H384zM32 416H64c0 53 43 96 96 96s96-43 96-96H384c0 53 43 96 96 96s96-43 96-96h32 16 16V384H624 608V224v-5.9l-3.9-4.5-96-112L503.4 96H496 416V32 0H384 32 0V32 384v32H32zM416 128h72.6l82.3 96H416V128zm0 216.4V256H576V384h-5.5c-13.2-37.3-48.7-64-90.5-64c-24.6 0-47 9.2-64 24.4zM160 352a64 64 0 1 1 0 128 64 64 0 1 1 0-128zm256 64a64 64 0 1 1 128 0 64 64 0 1 1 -128 0zM251.3 107.3L262.6 96 240 73.4 228.7 84.7l-80 80L121.4 192H160h68l-52.7 52.7L164 256l22.6 22.6L198 267.3l80-80L305.3 160H266.7h-68l52.7-52.7z"/></svg>
